img/spotify.svg

<svg width="33" height="33" viewBox="0 0 33 33" fill="none" xmlns="http://www.w3.org/2000/svg">
<path d="M16.4688 0.959961C7.6594 0.959961 0.517685 8.10149 0.517685 16.9108C0.517685 25.7205 7.6594 32.8615 16.4688 32.8615C25.2791 32.8615 32.42 25.7205 32.42 16.9108C32.42 8.10206 25.2793 0.959961 16.4688 0.959961ZM23.7838 23.9657C23.498 24.4343 22.8848 24.5828 22.4162 24.2952C18.6711 22.0076 13.9563 21.4895 8.40397 22.758C7.86893 22.88 7.33559 22.5448 7.21368 22.0095C7.09121 21.4743 7.42511 20.9409 7.9615 20.8191C14.0377 19.4303 19.2497 20.0285 23.4543 22.598C23.9228 22.8857 24.0714 23.4971 23.7838 23.9657ZM25.7362 19.6219C25.3762 20.2076 24.6105 20.3923 24.0257 20.0323C19.738 17.3963 13.2023 16.6331 8.13083 18.1725C7.47311 18.3712 6.77845 18.0005 6.57883 17.344C6.38073 16.6863 6.75159 15.9929 7.40816 15.7929C13.2011 14.0352 20.4028 14.8866 25.3266 17.9123C25.9114 18.2723 26.0962 19.0379 25.7362 19.6219ZM25.9038 15.0992C20.7628 12.0457 12.2809 11.7649 7.37254 13.2546C6.58436 13.4937 5.75083 13.0488 5.51197 12.2605C5.27311 11.472 5.71768 10.639 6.50645 10.3994C12.1409 8.68891 21.5076 9.01939 27.4265 12.5331C28.1369 12.9539 28.3694 13.8695 27.9483 14.5775C27.5294 15.2865 26.6104 15.5202 25.9038 15.0992Z" fill="#1ED760"/>
</svg>

<svg width="33" height="33" fill="none" xmlns="http://www.w3.org/2000/svg"><path d="M16.469.96C7.659.96.518 8.101.518 16.91c0 8.81 7.141 15.951 15.95 15.951 8.811 0 15.952-7.14 15.952-15.95C32.42 8.102 25.28.96 16.469.96Zm7.315 23.006a.994.994 0 0 1-1.368.33c-3.745-2.288-8.46-2.806-14.012-1.538a.994.994 0 0 1-.442-1.939c6.076-1.389 11.288-.79 15.492 1.779.469.288.617.9.33 1.368Zm1.952-4.344c-.36.586-1.126.77-1.71.41-4.288-2.636-10.824-3.399-15.895-1.86a1.245 1.245 0 0 1-1.552-.828 1.245 1.245 0 0 1 .83-1.551c5.792-1.758 12.994-.906 17.918 2.12.584.36.77 1.125.41 1.709Zm.168-4.523c-5.141-3.053-13.623-3.334-18.531-1.844a1.492 1.492 0 1 1-.867-2.856c5.635-1.71 15.002-1.38 20.92 2.134a1.491 1.491 0 1 1-1.523 2.566Z" fill="#1ED760"/></svg>
